assets/icons/question.svg

<svg width="20" height="20" viewBox="0 0 20 20" fill="none" xmlns="http://www.w3.org/2000/svg">
<path fill-rule="evenodd" clip-rule="evenodd" d="M10 3.33333C6.3181 3.33333 3.33333 6.3181 3.33333 10C3.33333 13.6819 6.3181 16.6667 10 16.6667C13.6819 16.6667 16.6667 13.6819 16.6667 10C16.6667 6.3181 13.6819 3.33333 10 3.33333ZM2 10C2 5.58172 5.58172 2 10 2C14.4183 2 18 5.58172 18 10C18 14.4183 14.4183 18 10 18C5.58172 18 2 14.4183 2 10Z" fill="currentColor"/>
<path fill-rule="evenodd" clip-rule="evenodd" d="M10.2006 7.0185C9.84373 6.95728 9.47668 7.02435 9.16449 7.20782C8.8523 7.3913 8.61512 7.67934 8.49496 8.02093C8.37278 8.36826 7.99216 8.55077 7.64484 8.42859C7.29751 8.30641 7.115 7.9258 7.23718 7.57847C7.46183 6.93985 7.90526 6.40133 8.48891 6.05831C9.07257 5.71529 9.75879 5.5899 10.426 5.70435C11.0933 5.8188 11.6985 6.16571 12.1345 6.68362C12.5703 7.20139 12.8089 7.85666 12.8081 8.53345C12.8079 9.62046 12.0014 10.3443 11.4112 10.7377C11.0958 10.948 10.7851 11.1029 10.5559 11.2047C10.4404 11.2561 10.3432 11.295 10.2733 11.3217C10.2383 11.335 10.21 11.3453 10.1894 11.3526C10.1792 11.3562 10.1709 11.3591 10.1646 11.3613L10.1568 11.3639L10.1541 11.3649L10.1531 11.3652L10.1526 11.3654C10.1524 11.3654 10.1522 11.3655 9.9414 10.733L10.1522 11.3655C9.80292 11.4819 9.42538 11.2931 9.30894 10.9439C9.19266 10.595 9.38081 10.218 9.72925 10.101C9.72953 10.1009 9.72981 10.1008 9.73009 10.1007L9.72994 10.1008L9.7308 10.1005L9.74277 10.0963C9.75449 10.0921 9.77345 10.0853 9.7986 10.0757C9.84902 10.0565 9.92369 10.0266 10.0144 9.98633C10.1977 9.90486 10.437 9.78472 10.6716 9.62834C11.1813 9.28851 11.4747 8.91246 11.4747 8.53304L11.4747 8.53204C11.4753 8.16993 11.3476 7.81932 11.1144 7.54229C10.8812 7.26527 10.5575 7.07971 10.2006 7.0185ZM9.73009 10.1007L9.73024 10.1007C9.73024 10.1007 9.73024 10.1007 9.73024 10.1007C9.73019 10.1007 9.73014 10.1007 9.73009 10.1007ZM12.8081 8.53345C12.8081 8.53364 12.8081 8.53384 12.8081 8.53403L12.1414 8.53304H12.8081C12.8081 8.53317 12.8081 8.53331 12.8081 8.53345Z" fill="currentColor"/>
<path fill-rule="evenodd" clip-rule="evenodd" d="M9.33301 13.6667C9.33301 13.2985 9.63148 13 9.99967 13H10.0072C10.3754 13 10.6739 13.2985 10.6739 13.6667C10.6739 14.0349 10.3754 14.3333 10.0072 14.3333H9.99967C9.63148 14.3333 9.33301 14.0349 9.33301 13.6667Z" fill="currentColor"/>
</svg>

<svg xmlns="http://www.w3.org/2000/svg" width="20" height="20" fill="none" viewBox="0 0 20 20"><path fill="currentColor" fill-rule="evenodd" d="M10 3.333a6.667 6.667 0 1 0 0 13.334 6.667 6.667 0 0 0 0-13.334M2 10a8 8 0 1 1 16 0 8 8 0 0 1-16 0" clip-rule="evenodd"/><path fill="currentColor" fill-rule="evenodd" d="M10.2 7.019A1.53 1.53 0 0 0 8.496 8.02a.667.667 0 0 1-1.258-.443 2.867 2.867 0 0 1 5.571.955c0 1.087-.807 1.811-1.397 2.205a5.8 5.8 0 0 1-1.246.623l-.008.003h-.003v.001h-.001l-.212-.632.211.633A.667.667 0 0 1 9.73 10.1l.013-.005.056-.02c.05-.02.125-.05.215-.09.184-.081.423-.201.658-.358.51-.34.803-.716.803-1.095v-.001A1.53 1.53 0 0 0 10.2 7.019m2.608 1.514-.667-.001zm-3.475 5.134c0-.368.298-.667.667-.667h.007a.667.667 0 0 1 0 1.333H10a.667.667 0 0 1-.667-.666" clip-rule="evenodd"/></svg>
